X: 12004
T: Éolie
R: reel
M: 4/4
K: Eminor
|:E3F G3A|B2Bc BAGF|E^DEF GFEG|A2AG FAGF|
E^DEF GFGA|BABc BAGF|EFGE AGFG|1 FE^DE E2D2:|2 FE^DF E2dc||
|:BddB G3B|cBcd eBdc|BddB G3B|cA2A Addc|
BddB G3B|cBcd eBdc|BgdB gdBd|1 cAFA G2dc:|2 cAFA G2 F2||

